X:6129
T:Smuggler's Reel
O:england
C:Trad
R:Reel
M:C|
K:EDor
L:1/8
e2e2 E3F|GFGA BABc|d2d2 D3E|FDFA dfed|
e2e2 E3F|GFGA BABc|dBcA BAFG| E2 ED E4:|
A| Beed eBef|geaf gfed|Addc d3B|ABde fagf|
eB (3BBB gB (3BBB| aB (3BBB bB (3BBB|gfed BABd| e2 ed e4 ||


